**harm	**harte	**silbe	**rhyme	**timestamp	**phrase	**leadinstrument	**kern
*M4/4	*M4/4	*	*	*	*	*	*
*	*	*	*	*	*	*	*
*	*	*	*	*	*	*	*
*A:	*A:	*	*	*	*	*	*A:
*	*	*	*	*	*	*	*
*	*	*	*	*	*	*	*
1r;	N	.	.	0	.	r	1r;
=1	=1	=1	=1	=1	=1	=1	=1
*>Letter>A	*>Letter>A	*>Letter>A	*>Letter>A	*>Letter>A	*>Letter>A	*>Letter>A	*>Letter>A
*>Label>Intro	*>Label>Intro	*>Label>Intro	*>Label>Intro	*>Label>Intro	*>Label>Intro	*>Label>Intro	*>Label>Intro
1I	A:maj	.	.	0.395	newline	guitar	1A 1cc# 1ee
=2	=2	=2	=2	=2	=2	=2	=2
1V	E:maj	.	.	2.259	.	guitar	1E 1g# 1b
=3	=3	=3	=3	=3	=3	=3	=3
1vi	F#:min	.	.	4.123	.	guitar	1F# 1a 1cc#
=4	=4	=4	=4	=4	=4	=4	=4
1IV	D:maj	.	.	5.988	.	guitar	1D 1f# 1a
=5	=5	=5	=5	=5	=5	=5	=5
1I	A:maj	.	.	7.852	newline	guitar	1A 1cc# 1ee
=6	=6	=6	=6	=6	=6	=6	=6
1V	E:maj	.	.	9.717	.	guitar	1E 1g# 1b
=7	=7	=7	=7	=7	=7	=7	=7
1vi	F#:min	.	.	11.582	.	guitar	1F# 1a 1cc#
=8	=8	=8	=8	=8	=8	=8	=8
1IV	D:maj	.	.	13.447	.	guitar	1D 1f# 1a
.	.	.	.	.	.	.	.
.	.	.	.	.	.	.	.
.	.	We	.	.	.	.	.
=9	=9	=9	=9	=9	=9	=9	=9
*>Letter>A	*>Letter>A	*>Letter>A	*>Letter>A	*>Letter>A	*>Letter>A	*>Letter>A	*>Letter>A
*>Label>Verse	*>Label>Verse	*>Label>Verse	*>Label>Verse	*>Label>Verse	*>Label>Verse	*>Label>Verse	*>Label>Verse
1I	A:maj	_	.	15.312	newline	voice	1A 1cc# 1ee
.	.	get	.	.	.	.	.
.	.	in	.	.	.	.	.
.	.	the	.	.	.	.	.
.	.	car	.	.	.	.	.
.	.	out	.	.	.	.	.
=10	=10	=10	=10	=10	=10	=10	=10
1V	E:maj	_	.	17.121	.	voice	1E 1g# 1b
.	.	side	.	.	.	.	.
.	.	your	.	.	.	.	.
.	.	house	A	.	.	.	.
.	.	_	.	.	.	.	.
.	.	oh	.	.	.	.	.
.	.	_	.	.	.	.	.
=11	=11	=11	=11	=11	=11	=11	=11
1vi	F#:min	_	.	18.929	.	voice	1F# 1a 1cc#
.	.	I	.	.	.	.	.
.	.	can	.	.	.	.	.
.	.	feel	.	.	.	.	.
.	.	the	.	.	.	.	.
.	.	heat	.	.	.	.	.
.	.	a	.	.	.	.	.
=12	=12	=12	=12	=12	=12	=12	=12
1IV	D:maj	com	.	20.738	.	voice	1D 1f# 1a
.	.	in'	.	.	.	.	.
.	.	_	.	.	.	.	.
.	.	round	A	.	.	.	.
.	.	_	.	.	.	.	.
=13	=13	=13	=13	=13	=13	=13	=13
1I	A:maj	.	.	22.547	newline	voice	1A 1cc# 1ee
.	.	I	.	.	.	.	.
.	.	go	.	.	.	.	.
.	.	to	.	.	.	.	.
.	.	put	.	.	.	.	.
.	.	my	.	.	.	.	.
.	.	arm	.	.	.	.	.
=14	=14	=14	=14	=14	=14	=14	=14
1V	E:maj	_	.	24.368	.	voice	1E 1g# 1b
.	.	a	.	.	.	.	.
.	.	round	.	.	.	.	.
.	.	_	.	.	.	.	.
.	.	you	.	.	.	.	.
.	.	and	.	.	.	.	.
.	.	you	.	.	.	.	.
=15	=15	=15	=15	=15	=15	=15	=15
1vi	F#:min	.	.	26.19	.	voice	1F# 1a 1cc#
.	.	give	.	.	.	.	.
.	.	me	.	.	.	.	.
.	.	a	.	.	.	.	.
.	.	look	.	.	.	.	.
.	.	a	.	.	.	.	.
.	.	like	.	.	.	.	.
.	.	I'm	.	.	.	.	.
=16	=16	=16	=16	=16	=16	=16	=16
1IV	D:maj	way	.	28.012	.	voice	1D 1f# 1a
.	.	out	.	.	.	.	.
.	.	of	.	.	.	.	.
.	.	bounds	A	.	.	.	.
.	.	_	.	.	.	.	.
.	.	well	.	.	.	.	.
.	.	_	.	.	.	.	.
=17	=17	=17	=17	=17	=17	=17	=17
1I	A:maj	.	.	29.833	newline	voice	1A 1cc# 1ee
.	.	you	.	.	.	.	.
.	.	let	.	.	.	.	.
.	.	out	.	.	.	.	.
.	.	one	.	.	.	.	.
.	.	of	.	.	.	.	.
.	.	your	.	.	.	.	.
=18	=18	=18	=18	=18	=18	=18	=18
1V	E:maj	_	.	31.641	.	voice	1E 1g# 1b
.	.	bored	.	.	.	.	.
.	.	sighs	B	.	.	.	.
.	.	.	.	.	.	.	.
=19	=19	=19	=19	=19	=19	=19	=19
1vi	F#:min	.	.	33.448	.	voice	1F# 1a 1cc#
.	.	Well	.	.	.	.	.
.	.	late	.	.	.	.	.
.	.	ly	.	.	.	.	.
.	.	when	.	.	.	.	.
.	.	I	.	.	.	.	.
.	.	look	.	.	.	.	.
.	.	in	.	.	.	.	.
=20	=20	=20	=20	=20	=20	=20	=20
1IV	D:maj	to	.	35.256	.	voice	1D 1f# 1a
.	.	your	.	.	.	.	.
.	.	eyes	B	.	.	.	.
.	.	_	.	.	.	.	.
.	.	I'm	.	.	.	.	.
.	.	go	.	.	.	.	.
.	.	ing	.	.	.	.	.
=21	=21	=21	=21	=21	=21	=21	=21
*>Letter>B	*>Letter>B	*>Letter>B	*>Letter>B	*>Letter>B	*>Letter>B	*>Letter>B	*>Letter>B
*>Label>Chorus	*>Label>Chorus	*>Label>Chorus	*>Label>Chorus	*>Label>Chorus	*>Label>Chorus	*>Label>Chorus	*>Label>Chorus
1I	A:maj	down	A	37.063	newline	voice	1A 1cc# 1ee
.	.	down	A	.	.	.	.
.	.	_	.	.	.	.	.
.	.	down	A	.	.	.	.
=22	=22	=22	=22	=22	=22	=22	=22
1V	E:maj	_	.	38.886	.	voice	1E 1g# 1b
.	.	down	A	.	.	.	.
.	.	.	.	.	.	.	.
.	.	I'm	.	.	.	.	.
.	.	go	.	.	.	.	.
.	.	ing	.	.	.	.	.
=23	=23	=23	=23	=23	=23	=23	=23
1vi	F#:min	down	A	40.709	.	voice	1F# 1a 1cc#
.	.	down	A	.	.	.	.
.	.	_	.	.	.	.	.
.	.	down	A	.	.	.	.
=24	=24	=24	=24	=24	=24	=24	=24
1IV	D:maj	_	.	42.532	.	voice	1D 1f# 1a
.	.	down	A	.	.	.	.
.	.	.	.	.	.	.	.
.	.	I'm	.	.	.	.	.
.	.	go	.	.	.	.	.
.	.	ing	.	.	.	.	.
=25	=25	=25	=25	=25	=25	=25	=25
1I	A:maj	down	A	44.355	newline	voice	1A 1cc# 1ee
.	.	down	A	.	.	.	.
.	.	_	.	.	.	.	.
.	.	down	A	.	.	.	.
=26	=26	=26	=26	=26	=26	=26	=26
1V	E:maj	_	.	46.165	.	voice	1E 1g# 1b
.	.	down	A	.	.	.	.
.	.	.	.	.	.	.	.
.	.	I'm	.	.	.	.	.
.	.	go	.	.	.	.	.
.	.	ing	.	.	.	.	.
=27	=27	=27	=27	=27	=27	=27	=27
1vi	F#:min	down	A	47.976	.	voice	1F# 1a 1cc#
.	.	down	A	.	.	.	.
.	.	_	.	.	.	.	.
.	.	down	A	.	.	.	.
=28	=28	=28	=28	=28	=28	=28	=28
1IV	D:maj	_	.	49.786	.	voice	1D 1f# 1a
.	.	down	A	.	.	.	.
.	.	.	.	.	.	.	.
=29	=29	=29	=29	=29	=29	=29	=29
*>Letter>A	*>Letter>A	*>Letter>A	*>Letter>A	*>Letter>A	*>Letter>A	*>Letter>A	*>Letter>A
*>Label>Verse	*>Label>Verse	*>Label>Verse	*>Label>Verse	*>Label>Verse	*>Label>Verse	*>Label>Verse	*>Label>Verse
1I	A:maj	.	.	51.597	newline	voice	1A 1cc# 1ee
.	.	We	.	.	.	.	.
.	.	get	.	.	.	.	.
.	.	dresssed	.	.	.	.	.
.	.	_	.	.	.	.	.
.	.	up	.	.	.	.	.
=30	=30	=30	=30	=30	=30	=30	=30
1V	E:maj	_	.	53.413	.	voice	1E 1g# 1b
.	.	and	.	.	.	.	.
.	.	we	.	.	.	.	.
.	.	go	.	.	.	.	.
.	.	_	.	.	.	.	.
=31	=31	=31	=31	=31	=31	=31	=31
1vi	F#:min	.	.	55.229	.	voice	1F# 1a 1cc#
.	.	out	A	.	.	.	.
.	.	.	.	.	.	.	.
.	.	ba	.	.	.	.	.
.	.	by	.	.	.	.	.
=32	=32	=32	=32	=32	=32	=32	=32
1IV	D:maj	for	.	57.045	.	voice	1D 1f# 1a
.	.	the	.	.	.	.	.
.	.	night	B	.	.	.	.
.	.	_	.	.	.	.	.
.	.	.	.	.	.	.	.
=33	=33	=33	=33	=33	=33	=33	=33
1I	A:maj	.	.	58.862	newline	voice	1A 1cc# 1ee
.	.	we	.	.	.	.	.
.	.	come	.	.	.	.	.
.	.	home	.	.	.	.	.
.	.	ear	.	.	.	.	.
.	.	ly	.	.	.	.	.
.	.	burn	.	.	.	.	.
=34	=34	=34	=34	=34	=34	=34	=34
1V	E:maj	_	.	60.673	.	voice	1E 1g# 1b
.	.	ing	.	.	.	.	.
.	.	burn	.	.	.	.	.
.	.	ing	.	.	.	.	.
.	.	_	.	.	.	.	.
=35	=35	=35	=35	=35	=35	=35	=35
1vi	F#:min	.	.	62.485	.	voice	1F# 1a 1cc#
.	.	burn	.	.	.	.	.
.	.	ing	.	.	.	.	.
.	.	in	.	.	.	.	.
.	.	some	.	.	.	.	.
=36	=36	=36	=36	=36	=36	=36	=36
1IV	D:maj	fi	.	64.297	.	voice	1D 1f# 1a
.	.	re	.	.	.	.	.
.	.	_	.	.	.	.	.
.	.	fight	B	.	.	.	.
.	.	_	.	.	.	.	.
.	.	.	.	.	.	.	.
=37	=37	=37	=37	=37	=37	=37	=37
1I	A:maj	.	.	66.109	newline	voice	1A 1cc# 1ee
.	.	I'm	.	.	.	.	.
.	.	sick	.	.	.	.	.
.	.	and	.	.	.	.	.
.	.	tired	.	.	.	.	.
.	.	of	.	.	.	.	.
.	.	you	.	.	.	.	.
=38	=38	=38	=38	=38	=38	=38	=38
1V	E:maj	set	.	67.912	.	voice	1E 1g# 1b
.	.	ting	.	.	.	.	.
.	.	me	.	.	.	.	.
.	.	up	.	.	.	.	.
.	.	_	.	.	.	.	.
.	.	_	.	.	.	.	.
=39	=39	=39	=39	=39	=39	=39	=39
1vi	F#:min	.	.	69.716	.	voice	1F# 1a 1cc#
.	.	Set'n	.	.	.	.	.
.	.	me	.	.	.	.	.
.	.	up	.	.	.	.	.
.	.	by	.	.	.	.	.
.	.	just	.	.	.	.	.
.	.	a	.	.	.	.	.
=40	=40	=40	=40	=40	=40	=40	=40
1IV	D:maj	knock	.	71.52	.	voice	1D 1f# 1a
.	.	a	.	.	.	.	.
.	.	knock	.	.	.	.	.
.	.	a	.	.	.	.	.
.	.	knock	.	.	.	.	.
.	.	in	.	.	.	.	.
.	.	me	.	.	.	.	.
.	.	down	A	.	.	.	.
=41	=41	=41	=41	=41	=41	=41	=41
*>Letter>B	*>Letter>B	*>Letter>B	*>Letter>B	*>Letter>B	*>Letter>B	*>Letter>B	*>Letter>B
*>Label>Chorus	*>Label>Chorus	*>Label>Chorus	*>Label>Chorus	*>Label>Chorus	*>Label>Chorus	*>Label>Chorus	*>Label>Chorus
1I	A:maj	_	.	73.324	newline	voice	1A 1cc# 1ee
.	.	down	A	.	.	.	.
.	.	_	.	.	.	.	.
.	.	down	A	.	.	.	.
=42	=42	=42	=42	=42	=42	=42	=42
1V	E:maj	_	.	75.127	.	voice	1E 1g# 1b
.	.	down	A	.	.	.	.
.	.	.	.	.	.	.	.
.	.	I'm	.	.	.	.	.
.	.	go	.	.	.	.	.
.	.	in	.	.	.	.	.
=43	=43	=43	=43	=43	=43	=43	=43
1vi	F#:min	down	A	76.931	.	voice	1F# 1a 1cc#
.	.	down	A	.	.	.	.
.	.	_	.	.	.	.	.
.	.	down	A	.	.	.	.
=44	=44	=44	=44	=44	=44	=44	=44
1IV	D:maj	_	.	78.734	.	voice	1D 1f# 1a
.	.	down	A	.	.	.	.
.	.	.	.	.	.	.	.
.	.	I'm	.	.	.	.	.
.	.	go	.	.	.	.	.
.	.	in	.	.	.	.	.
=45	=45	=45	=45	=45	=45	=45	=45
1I	A:maj	down	.	80.538	newline	voice	1A 1cc# 1ee
.	.	down	.	.	.	.	.
.	.	_	.	.	.	.	.
.	.	down	.	.	.	.	.
=46	=46	=46	=46	=46	=46	=46	=46
1V	E:maj	_	.	82.355	.	voice	1E 1g# 1b
.	.	down	.	.	.	.	.
.	.	.	.	.	.	.	.
.	.	I'm	.	.	.	.	.
.	.	go	.	.	.	.	.
.	.	in	.	.	.	.	.
=47	=47	=47	=47	=47	=47	=47	=47
1vi	F#:min	down	.	84.173	.	voice	1F# 1a 1cc#
.	.	down	.	.	.	.	.
.	.	_	.	.	.	.	.
.	.	down	.	.	.	.	.
=48	=48	=48	=48	=48	=48	=48	=48
1IV	D:maj	_	.	85.991	.	voice	1D 1f# 1a
.	.	down	.	.	.	.	.
.	.	.	.	.	.	.	.
=49	=49	=49	=49	=49	=49	=49	=49
*>Letter>B	*>Letter>B	*>Letter>B	*>Letter>B	*>Letter>B	*>Letter>B	*>Letter>B	*>Letter>B
*>Label>Solo	*>Label>Solo	*>Label>Solo	*>Label>Solo	*>Label>Solo	*>Label>Solo	*>Label>Solo	*>Label>Solo
1I	A:maj	.	.	87.809	newline	saxophone	1A 1cc# 1ee
=50	=50	=50	=50	=50	=50	=50	=50
1V	E:maj	.	.	89.627	.	saxophone	1E 1g# 1b
=51	=51	=51	=51	=51	=51	=51	=51
1vi	F#:min	.	.	91.446	.	saxophone	1F# 1a 1cc#
=52	=52	=52	=52	=52	=52	=52	=52
1IV	D:maj	.	.	93.265	.	saxophone	1D 1f# 1a
=53	=53	=53	=53	=53	=53	=53	=53
1I	A:maj	.	.	95.083	newline	saxophone	1A 1cc# 1ee
=54	=54	=54	=54	=54	=54	=54	=54
1V	E:maj	.	.	96.907	.	saxophone	1E 1g# 1b
=55	=55	=55	=55	=55	=55	=55	=55
1vi	F#:min	.	.	98.731	.	saxophone	1F# 1a 1cc#
=56	=56	=56	=56	=56	=56	=56	=56
1IV	D:maj	.	.	100.555	.	saxophone	1D 1f# 1a
=57	=57	=57	=57	=57	=57	=57	=57
*>Letter>A	*>Letter>A	*>Letter>A	*>Letter>A	*>Letter>A	*>Letter>A	*>Letter>A	*>Letter>A
*>Label>Verse	*>Label>Verse	*>Label>Verse	*>Label>Verse	*>Label>Verse	*>Label>Verse	*>Label>Verse	*>Label>Verse
1I	A:5	.	.	102.379	newline	voice	1A 1cc# 1ee
.	.	I	.	.	.	.	.
.	.	pull	.	.	.	.	.
.	.	you	.	.	.	.	.
.	.	close	.	.	.	.	.
=58	=58	=58	=58	=58	=58	=58	=58
1V	E:5	_	.	104.19	.	voice	1E 1g# 1b
.	.	now	.	.	.	.	.
.	.	ba-	.	.	.	.	.
.	.	_	.	.	.	.	.
.	.	-by	.	.	.	.	.
.	.	.	.	.	.	.	.
=59	=59	=59	=59	=59	=59	=59	=59
1vi	F#:5	.	.	106	.	voice	1F# 1a 1cc#
.	.	but	.	.	.	.	.
.	.	when	.	.	.	.	.
.	.	we	.	.	.	.	.
.	.	kiss	.	.	.	.	.
.	.	I	.	.	.	.	.
.	.	can	.	.	.	.	.
=60	=60	=60	=60	=60	=60	=60	=60
1IV	D:5	feel	.	107.81	.	voice	1D 1f# 1a
.	.	a	.	.	.	.	.
.	.	_	.	.	.	.	.
.	.	doubt	A	.	.	.	.
.	.	_	.	.	.	.	.
.	.	.	.	.	.	.	.
=61	=61	=61	=61	=61	=61	=61	=61
1I	A:5	.	.	109.621	newline	voice	1A 1cc# 1ee
.	.	I	.	.	.	.	.
.	.	re	.	.	.	.	.
.	.	mem	.	.	.	.	.
.	.	ber	.	.	.	.	.
.	.	back	.	.	.	.	.
.	.	when	.	.	.	.	.
=62	=62	=62	=62	=62	=62	=62	=62
1V	E:5	_	.	111.422	.	voice	1E 1g# 1b
.	.	we	.	.	.	.	.
.	.	start	.	.	.	.	.
.	.	_	.	.	.	.	.
.	.	ed	.	.	.	.	.
=63	=63	=63	=63	=63	=63	=63	=63
1vi	F#:5	.	.	113.223	.	voice	1F# 1a 1cc#
.	.	my	.	.	.	.	.
.	.	kiss	.	.	.	.	.
.	.	es	.	.	.	.	.
.	.	used	.	.	.	.	.
.	.	to	.	.	.	.	.
.	.	turn	.	.	.	.	.
.	.	you	.	.	.	.	.
=64	=64	=64	=64	=64	=64	=64	=64
1IV	D:5	in	.	115.024	.	voice	1D 1f# 1a
.	.	side	.	.	.	.	.
.	.	_	.	.	.	.	.
.	.	out	A	.	.	.	.
.	.	well	.	.	.	.	.
.	.	_	.	.	.	.	.
=65	=65	=65	=65	=65	=65	=65	=65
1I	A:5	.	.	116.825	newline	voice	1A 1cc# 1ee
.	.	I	.	.	.	.	.
.	.	used	.	.	.	.	.
.	.	to	.	.	.	.	.
.	.	drive	.	.	.	.	.
.	.	you	.	.	.	.	.
.	.	to	.	.	.	.	.
=66	=66	=66	=66	=66	=66	=66	=66
1V	E:5	work	.	118.635	.	voice	1E 1g# 1b
.	.	in	.	.	.	.	.
.	.	the	.	.	.	.	.
.	.	morn	.	.	.	.	.
.	.	ing	.	.	.	.	.
.	.	_	.	.	.	.	.
=67	=67	=67	=67	=67	=67	=67	=67
1vi	F#:5	.	.	120.446	.	voice	1F# 1a 1cc#
.	.	Fri	.	.	.	.	.
.	.	day	.	.	.	.	.
.	.	night	.	.	.	.	.
.	.	I'd	.	.	.	.	.
.	.	drive	.	.	.	.	.
.	.	you	.	.	.	.	.
=68	=68	=68	=68	=68	=68	=68	=68
1IV	D:5	all	.	122.256	.	voice	1D 1f# 1a
.	.	a	.	.	.	.	.
.	.	_	.	.	.	.	.
.	.	round	A	.	.	.	.
.	.	_	.	.	.	.	.
.	.	well	.	.	.	.	.
.	.	_	.	.	.	.	.
=69	=69	=69	=69	=69	=69	=69	=69
1I	A:5	.	.	124.066	newline	voice	1A 1cc# 1ee
.	.	You	.	.	.	.	.
.	.	used	.	.	.	.	.
.	.	to	.	.	.	.	.
.	.	love	.	.	.	.	.
.	.	to	.	.	.	.	.
.	.	drive	.	.	.	.	.
=70	=70	=70	=70	=70	=70	=70	=70
1V	E:5	_	.	125.855	.	voice	1E 1g# 1b
.	.	me	.	.	.	.	.
.	.	wild	B	.	.	.	.
.	.	_	.	.	.	.	.
.	.	yeah	.	.	.	.	.
.	.	_	.	.	.	.	.
=71	=71	=71	=71	=71	=71	=71	=71
1vi	F#:5	.	.	127.643	.	voice	1F# 1a 1cc#
.	.	but	.	.	.	.	.
.	.	late	.	.	.	.	.
.	.	ly	.	.	.	.	.
.	.	girl	.	.	.	.	.
.	.	you	.	.	.	.	.
.	.	get	.	.	.	.	.
.	.	your	.	.	.	.	.
=72	=72	=72	=72	=72	=72	=72	=72
1IV	D:5	kicks	.	129.431	.	voice	1D 1f# 1a
.	.	from	.	.	.	.	.
.	.	just	.	.	.	.	.
.	.	a	.	.	.	.	.
.	.	dri	.	.	.	.	.
.	.	vin	.	.	.	.	.
.	.	me	.	.	.	.	.
.	.	down	A	.	.	.	.
=73	=73	=73	=73	=73	=73	=73	=73
*>Letter>B	*>Letter>B	*>Letter>B	*>Letter>B	*>Letter>B	*>Letter>B	*>Letter>B	*>Letter>B
*>Label>Chorus	*>Label>Chorus	*>Label>Chorus	*>Label>Chorus	*>Label>Chorus	*>Label>Chorus	*>Label>Chorus	*>Label>Chorus
1I	A:maj	_	.	131.219	newline	voice	1A 1cc# 1ee
.	.	down	.	.	.	.	.
.	.	_	.	.	.	.	.
.	.	down	.	.	.	.	.
=74	=74	=74	=74	=74	=74	=74	=74
1V	E:maj	_	.	133.024	.	voice	1E 1g# 1b
.	.	down	.	.	.	.	.
.	.	.	.	.	.	.	.
.	.	I'm	.	.	.	.	.
.	.	go	.	.	.	.	.
.	.	ing	.	.	.	.	.
=75	=75	=75	=75	=75	=75	=75	=75
1vi	F#:min	down	.	134.829	.	voice	1F# 1a 1cc#
.	.	down	.	.	.	.	.
.	.	_	.	.	.	.	.
.	.	down	.	.	.	.	.
=76	=76	=76	=76	=76	=76	=76	=76
1IV	D:maj	_	.	136.633	.	voice	1D 1f# 1a
.	.	down	.	.	.	.	.
.	.	.	.	.	.	.	.
.	.	I'm	.	.	.	.	.
.	.	go	.	.	.	.	.
.	.	ing	.	.	.	.	.
=77	=77	=77	=77	=77	=77	=77	=77
1I	A:maj	down	.	138.438	newline	voice	1A 1cc# 1ee
.	.	down	.	.	.	.	.
.	.	_	.	.	.	.	.
.	.	down	.	.	.	.	.
=78	=78	=78	=78	=78	=78	=78	=78
1V	E:maj	_	.	140.261	.	voice	1E 1g# 1b
.	.	down	.	.	.	.	.
.	.	.	.	.	.	.	.
.	.	I'm	.	.	.	.	.
.	.	go	.	.	.	.	.
.	.	in	.	.	.	.	.
=79	=79	=79	=79	=79	=79	=79	=79
1vi	F#:min	down	.	142.083	.	voice	1F# 1a 1cc#
.	.	down	.	.	.	.	.
.	.	_	.	.	.	.	.
.	.	down	.	.	.	.	.
=80	=80	=80	=80	=80	=80	=80	=80
1IV	D:maj	_	.	143.905	.	voice	1D 1f# 1a
.	.	_	.	.	.	.	.
.	.	.	.	.	.	.	.
.	.	I'm	.	.	.	.	.
.	.	go	.	.	.	.	.
.	.	ing	.	.	.	.	.
=81	=81	=81	=81	=81	=81	=81	=81
*>Letter>B	*>Letter>B	*>Letter>B	*>Letter>B	*>Letter>B	*>Letter>B	*>Letter>B	*>Letter>B
*>Label>Chorus	*>Label>Chorus	*>Label>Chorus	*>Label>Chorus	*>Label>Chorus	*>Label>Chorus	*>Label>Chorus	*>Label>Chorus
1I	A:5	down	.	145.727	newline	voice	1A 1cc# 1ee
.	.	down	.	.	.	.	.
.	.	_	.	.	.	.	.
.	.	down	.	.	.	.	.
=82	=82	=82	=82	=82	=82	=82	=82
1V	E:5	_	.	147.527	.	voice	1E 1g# 1b
.	.	down	.	.	.	.	.
.	.	.	.	.	.	.	.
.	.	I'm	.	.	.	.	.
.	.	go	.	.	.	.	.
.	.	ing	.	.	.	.	.
=83	=83	=83	=83	=83	=83	=83	=83
1vi	F#:5	down	.	149.326	.	voice	1F# 1a 1cc#
.	.	down	.	.	.	.	.
.	.	_	.	.	.	.	.
.	.	down	.	.	.	.	.
=84	=84	=84	=84	=84	=84	=84	=84
1IV	D:5	_	.	151.126	.	voice	1D 1f# 1a
.	.	down	.	.	.	.	.
.	.	.	.	.	.	.	.
.	.	I'm	.	.	.	.	.
.	.	go	.	.	.	.	.
.	.	ing	.	.	.	.	.
=85	=85	=85	=85	=85	=85	=85	=85
1I	A:5	down	.	152.926	newline	voice	1A 1cc# 1ee
.	.	down	.	.	.	.	.
.	.	_	.	.	.	.	.
.	.	down	.	.	.	.	.
=86	=86	=86	=86	=86	=86	=86	=86
1V	E:5	_	.	154.72	.	voice	1E 1g# 1b
.	.	down	.	.	.	.	.
.	.	.	.	.	.	.	.
.	.	I'm	.	.	.	.	.
.	.	go	.	.	.	.	.
.	.	ing	.	.	.	.	.
=87	=87	=87	=87	=87	=87	=87	=87
1vi	F#:5	down	.	156.515	.	voice	1F# 1a 1cc#
.	.	down	.	.	.	.	.
.	.	_	.	.	.	.	.
.	.	a	.	.	.	.	.
.	.	da	.	.	.	.	.
.	.	ba	.	.	.	.	.
=88	=88	=88	=88	=88	=88	=88	=88
1IV	D:5	do	.	158.31	.	voice	1D 1f# 1a
.	.	da	.	.	.	.	.
.	.	_	.	.	.	.	.
.	.	down	.	.	.	.	.
.	.	.	.	.	.	.	.
.	.	I'm	.	.	.	.	.
.	.	go	.	.	.	.	.
.	.	ing	.	.	.	.	.
=89	=89	=89	=89	=89	=89	=89	=89
*>Letter>B	*>Letter>B	*>Letter>B	*>Letter>B	*>Letter>B	*>Letter>B	*>Letter>B	*>Letter>B
*>Label>Chorus	*>Label>Chorus	*>Label>Chorus	*>Label>Chorus	*>Label>Chorus	*>Label>Chorus	*>Label>Chorus	*>Label>Chorus
1I	A:maj	down	.	160.105	newline	voice	1A 1cc# 1ee
.	.	down	.	.	.	.	.
.	.	_	.	.	.	.	.
.	.	down	.	.	.	.	.
=90	=90	=90	=90	=90	=90	=90	=90
1V	E:maj	_	.	161.923	.	voice	1E 1g# 1b
.	.	down	.	.	.	.	.
.	.	.	.	.	.	.	.
.	.	I'm	.	.	.	.	.
.	.	go	.	.	.	.	.
.	.	ing	.	.	.	.	.
=91	=91	=91	=91	=91	=91	=91	=91
1vi	F#:min	down	.	163.74	.	voice	1F# 1a 1cc#
.	.	hey	.	.	.	.	.
.	.	_	.	.	.	.	.
.	.	a	.	.	.	.	.
.	.	bap	.	.	.	.	.
.	.	a	.	.	.	.	.
=92	=92	=92	=92	=92	=92	=92	=92
1IV	D:maj	do	.	165.558	.	voice	1D 1f# 1a
.	.	dah	.	.	.	.	.
.	.	_	.	.	.	.	.
.	.	down	.	.	.	.	.
.	.	.	.	.	.	.	.
.	.	I'm	.	.	.	.	.
.	.	go	.	.	.	.	.
.	.	in	.	.	.	.	.
=93	=93	=93	=93	=93	=93	=93	=93
1I	A:maj	down	.	167.375	newline	voice	1A 1cc# 1ee
.	.	down	.	.	.	.	.
.	.	_	.	.	.	.	.
.	.	down	.	.	.	.	.
=94	=94	=94	=94	=94	=94	=94	=94
1V	E:maj	_	.	169.178	.	voice	1E 1g# 1b
.	.	.	.	.	.	.	.
.	.	hey	.	.	.	.	.
.	.	.	.	.	.	.	.
.	.	I'm	.	.	.	.	.
.	.	go	.	.	.	.	.
.	.	ing	.	.	.	.	.
=95	=95	=95	=95	=95	=95	=95	=95
1vi	F#:min	down	.	170.981	.	voice	1F# 1a 1cc#
.	.	down	.	.	.	.	.
.	.	_	.	.	.	.	.
.	.	hey	.	.	.	.	.
.	.	bap	.	.	.	.	.
.	.	a	.	.	.	.	.
=96	=96	=96	=96	=96	=96	=96	=96
1IV	D:maj	.	.	172.784	.	voice	1D 1f# 1a
.	.	hey	.	.	.	.	.
.	.	bap	.	.	.	.	.
.	.	a	.	.	.	.	.
.	.	do	.	.	.	.	.
.	.	dah	.	.	.	.	.
.	.	_	.	.	.	.	.
.	.	down	.	.	.	.	.
=97	=97	=97	=97	=97	=97	=97	=97
*>Letter>B	*>Letter>B	*>Letter>B	*>Letter>B	*>Letter>B	*>Letter>B	*>Letter>B	*>Letter>B
*>Label>Solo	*>Label>Solo	*>Label>Solo	*>Label>Solo	*>Label>Solo	*>Label>Solo	*>Label>Solo	*>Label>Solo
1I	A:maj	.	.	174.586	newline	piano	1A 1cc# 1ee
.	.	.	.	.	.	.	.
.	.	hey	.	.	.	.	.
.	.	_	.	.	.	.	.
.	.	hmm	.	.	.	.	.
=98	=98	=98	=98	=98	=98	=98	=98
1V	E:maj	_	.	176.389	.	piano	1E 1g# 1b
.	.	de	.	.	.	.	.
.	.	bop	.	.	.	.	.
.	.	bop	.	.	.	.	.
.	.	a	.	.	.	.	.
.	.	well	.	.	.	.	.
.	.	a	.	.	.	.	.
=99	=99	=99	=99	=99	=99	=99	=99
1vi	F#:min	down	.	178.191	.	piano	1F# 1a 1cc#
.	.	.	.	.	.	.	.
.	.	hey	.	.	.	.	.
.	.	_	.	.	.	.	.
.	.	hey	.	.	.	.	.
.	.	_	.	.	.	.	.
.	.	hmm	.	.	.	.	.
=100	=100	=100	=100	=100	=100	=100	=100
1IV	D:maj	_	.	179.994	.	piano	1D 1f# 1a
.	.	de	.	.	.	.	.
.	.	bop	.	.	.	.	.
.	.	bop	.	.	.	.	.
.	.	I	.	.	.	.	.
.	.	said	.	.	.	.	.
.	.	a	.	.	.	.	.
=101	=101	=101	=101	=101	=101	=101	=101
1I	A:maj	down	.	181.797	newline	piano	1A 1cc# 1ee
.	.	.	.	.	.	.	.
.	.	hey	.	.	.	.	.
.	.	_	.	.	.	.	.
.	.	hey	.	.	.	.	.
.	.	_	.	.	.	.	.
.	.	hmm	.	.	.	.	.
=102	=102	=102	=102	=102	=102	=102	=102
1V	E:maj	_	.	183.559	.	piano	1E 1g# 1b
.	.	de	.	.	.	.	.
.	.	bop	.	.	.	.	.
.	.	bop	.	.	.	.	.
.	.	a	.	.	.	.	.
.	.	well	.	.	.	.	.
.	.	a	.	.	.	.	.
=103	=103	=103	=103	=103	=103	=103	=103
1vi	F#:min	down	.	185.322	.	piano	1F# 1a 1cc#
.	.	.	.	.	.	.	.
.	.	hey	.	.	.	.	.
.	.	_	.	.	.	.	.
.	.	hey	.	.	.	.	.
.	.	_	.	.	.	.	.
.	.	oh	.	.	.	.	.
=104	=104	=104	=104	=104	=104	=104	=104
1IV	D:maj	_	.	187.085	.	piano	1D 1f# 1a
.	.	a	.	.	.	.	.
.	.	bop	.	.	.	.	.
.	.	bop	.	.	.	.	.
.	.	yeah	.	.	.	.	.
=105	=105	=105	=105	=105	=105	=105	=105
*>Label>>Fadeout	*>Label>>Fadeout	*>Label>>Fadeout	*>Label>>Fadeout	*>Label>>Fadeout	*>Label>>Fadeout	*>Label>>Fadeout	*>Label>>Fadeout
1I	A:maj	.	.	188.848	newline	piano	1A 1cc# 1ee
.	.	.	.	.	.	.	.
.	.	hey	.	.	.	.	.
.	.	_	.	.	.	.	.
.	.	hmm	.	.	.	.	.
=106	=106	=106	=106	=106	=106	=106	=106
1V	E:maj	_	.	190.639	.	piano	1E 1g# 1b
.	.	hey	.	.	.	.	.
.	.	.	.	.	.	.	.
.	.	.	.	.	.	.	.
.	.	say'n	.	.	.	.	.
.	.	_	.	.	.	.	.
.	.	down	.	.	.	.	.
=107	=107	=107	=107	=107	=107	=107	=107
1vi	F#:min	_	.	192.431	.	piano	1F# 1a 1cc#
.	.	down	.	.	.	.	.
.	.	_	.	.	.	.	.
.	.	down	.	.	.	.	.
.	.	_	.	.	.	.	.
.	.	down	.	.	.	.	.
.	.	_	.	.	.	.	.
.	.	down	.	.	.	.	.
=108	=108	=108	=108	=108	=108	=108	=108
1IV	D:maj	_	.	194.222	.	piano	1D 1f# 1a
.	.	.	.	.	.	.	.
.	.	.	.	.	.	.	.
.	.	hey	.	.	.	.	.
.	.	_	.	.	.	.	.
.	.	down	.	.	.	.	.
=109	=109	=109	=109	=109	=109	=109	=109
1I	A:maj	_	.	196.013	newline	guitar	1A 1cc# 1ee
.	.	down	.	.	.	.	.
.	.	_	.	.	.	.	.
.	.	.	.	.	.	.	.
=110	=110	=110	=110	=110	=110	=110	=110
1V	E:maj	.	.	197.804	.	guitar	1E 1g# 1b
.	.	.	.	.	.	.	.
.	.	Say'n	.	.	.	.	.
.	.	_	.	.	.	.	.
.	.	down	.	.	.	.	.
=111	=111	=111	=111	=111	=111	=111	=111
1vi	F#:min	_	.	199.594	.	guitar	1F# 1a 1cc#
.	.	down	.	.	.	.	.
.	.	_	.	.	.	.	.
.	.	down	.	.	.	.	.
.	.	_	.	.	.	.	.
.	.	down	.	.	.	.	.
.	.	_	.	.	.	.	.
.	.	down	.	.	.	.	.
=112	=112	=112	=112	=112	=112	=112	=112
1IV	D:maj	_	.	201.385	.	guitar	1D 1f# 1a
.	.	.	.	.	.	.	.
.	.	.	.	.	.	.	.
.	.	hey	.	.	.	.	.
.	.	_	.	.	.	.	.
.	.	hey	.	.	.	.	.
=113	=113	=113	=113	=113	=113	=113	=113
1I	A:maj	_	.	203.175	newline	guitar	1A 1cc# 1ee
.	.	hmm	.	.	.	.	.
.	.	_	.	.	.	.	.
.	.	.	.	.	.	.	.
.	.	.	.	.	.	.	.
=114	=114	=114	=114	=114	=114	=114	=114
1V	E:maj	.	.	203.726	.	guitar	1E 1g# 1b
=115	=115	=115	=115	=115	=115	=115	=115
1vi	F#:min	.	.	204.278	.	guitar	1F# 1a 1cc#
=116	=116	=116	=116	=116	=116	=116	=116
1IV	D:maj	.	.	204.829	.	guitar	1D 1f# 1a
1r;	N	.	.	205.38	.	r	1r;
1r;	N	.	.	211.984	.	r	1r;
*-	*-	*-	*-	*-	*-	*-	*-
!!!BillboardChartDate: 1985/11/09
!!!BillboardPeak: 9
!!!BillboardWeeksOnChart: 13
!!!COC: Bruce Springsteen
!!!ENC: Nathaniel Condit-Schultz
!!!EST: Awating manual error checking and editing.
!!!OTL: I m Goin  Down
!!!RDF**harte: Chris Harte's syntax, used by MIREX
!!!RDF**harmony: **recip + pitch class of root + harmonic quality
!!!RDF**leadinstrument: original McGill primary instrumentation annotation
!!!RDF**phrase: newline = linebreak in original McGill transcription
!!!RDF**timestamp: McGill audio timestamp in seconds
!!!RDT: 2017/01/12/
!!!SampleActualRank: 32
!!!SampleID#: 0426
!!!SampleTargetRank: 32
!!!MBID: 9b4eae4f-fc37-4078-92de-6bd6a1ab21ec
